img/ctg-3.svg

<svg width="64" height="64" viewBox="0 0 64 64" fill="none" xmlns="http://www.w3.org/2000/svg">
<path fill-rule="evenodd" clip-rule="evenodd" d="M32 64C49.6731 64 64 49.6731 64 32C64 14.3269 49.6731 0 32 0C14.3269 0 0 14.3269 0 32C0 49.6731 14.3269 64 32 64Z" fill="#E6F0FC"/>
<path fill-rule="evenodd" clip-rule="evenodd" d="M12 18.6667H52.4444C53.549 18.6667 54.4444 19.5621 54.4444 20.6667V52C44.4424 49.284 42.8239 47.5556 32.2222 47.5556C21.6206 47.5556 20.002 49.284 10 52V20.6667C10 19.5621 10.8954 18.6667 12 18.6667Z" fill="white"/>
<path fill-rule="evenodd" clip-rule="evenodd" d="M54.4444 21C54.4444 19.8955 53.549 19 52.4444 19H12C10.8954 19 10 19.8955 10 21V20.6667C10 19.5621 10.8954 18.6667 12 18.6667H52.4444C53.549 18.6667 54.4444 19.5621 54.4444 20.6667V21ZM54.4444 49V52C44.4424 49.284 42.8239 47.5556 32.2222 47.5556C21.6206 47.5556 20.002 49.284 10 52V49C20.002 46.5556 21.6206 45 32.2222 45C42.8239 45 44.4424 46.5556 54.4444 49Z" fill="#52ABE2"/>
<path d="M44.1246 47.8743C40.6291 46.941 37.381 46.5556 32.2222 46.5556C27.0634 46.5556 23.8154 46.941 20.3198 47.8743C19.3698 48.1279 14.1763 49.7591 11 50.6789V20.6667C11 20.1144 11.4477 19.6667 12 19.6667H16.6678V17.6667H12C10.3431 17.6667 9 19.0098 9 20.6667V53.3078L10.2621 52.9651C13.1161 52.1901 19.8005 50.083 20.8357 49.8066C24.1543 48.9206 27.2302 48.5556 32.2222 48.5556C37.2143 48.5556 40.2902 48.9206 43.6087 49.8066C44.644 50.083 51.3284 52.1901 54.1824 52.9651L55.4444 53.3078V20.6667C55.4444 19.0098 54.1013 17.6667 52.4444 17.6667H47.8187V19.6667H52.4444C52.9967 19.6667 53.4444 20.1144 53.4444 20.6667V50.6789C50.2681 49.7591 45.0746 48.1279 44.1246 47.8743Z" fill="#154E84"/>
<path fill-rule="evenodd" clip-rule="evenodd" d="M16.6667 12C22.628 12 27.8132 13.4815 32.2222 16.4444C36.6931 13.4815 41.8783 12 47.7778 12V43.1111C41.898 43.1111 36.7128 44.5926 32.2222 47.5556C27.7763 44.5926 22.5912 43.1111 16.6667 43.1111C16.6667 43.1111 16.6667 12 16.6667 12Z" fill="white"/>
<path fill-rule="evenodd" clip-rule="evenodd" d="M48.7778 11H47.7778C41.9283 11 36.7369 12.4169 32.2258 15.252C27.7684 12.4164 22.5744 11 16.6667 11H15.6667V27.5556V38.25V44.1111H16.6667C22.3989 44.1111 27.3907 45.5373 31.6677 48.3877L32.2195 48.7554L32.773 48.3902C37.0961 45.5378 42.0894 44.1111 47.7778 44.1111H48.7778V21.8438V14.8711V12V11ZM17.6667 38.25V27.5556V13.0145C23.0139 13.1709 27.6726 14.5918 31.6645 17.2744L32.2184 17.6467L32.7747 17.278C36.8242 14.5942 41.4849 13.1728 46.7778 13.0148V38.25V42.1252C41.3505 42.2789 36.4933 43.692 32.2248 46.3652C27.9911 43.6905 23.1321 42.2777 17.6667 42.125V38.25Z" fill="#154E84"/>
<path d="M31.2222 16.4445V47.5556H33.2222V16.4445H31.2222Z" fill="#154E84"/>
<path d="M27.5457 21.8909C25.9093 21.0566 23.6752 20.4182 20.8496 19.9887C20.3036 19.9056 19.9283 19.3957 20.0113 18.8497C20.0943 18.3037 20.6042 17.9284 21.1502 18.0114C24.1712 18.4707 26.6038 19.1657 28.4542 20.1091C28.9462 20.36 29.1417 20.9622 28.8908 21.4542C28.6399 21.9463 28.0377 22.1418 27.5457 21.8909Z" fill="#FFC200"/>
<path d="M36.4542 21.8909C38.0906 21.0566 40.3247 20.4182 43.1503 19.9887C43.6963 19.9056 44.0717 19.3957 43.9886 18.8497C43.9056 18.3037 43.3957 17.9284 42.8497 18.0114C39.8287 18.4707 37.3961 19.1657 35.5458 20.1091C35.0537 20.36 34.8583 20.9622 35.1091 21.4542C35.36 21.9463 35.9622 22.1418 36.4542 21.8909Z" fill="#FFC200"/>
<path d="M27.5457 29.8909C25.9093 29.0566 23.6752 28.4182 20.8496 27.9887C20.3036 27.9056 19.9283 27.3957 20.0113 26.8497C20.0943 26.3037 20.6042 25.9284 21.1502 26.0114C24.1712 26.4707 26.6038 27.1657 28.4542 28.1091C28.9462 28.36 29.1417 28.9622 28.8908 29.4542C28.6399 29.9463 28.0377 30.1418 27.5457 29.8909Z" fill="#FFC200"/>
<path d="M36.4542 29.8909C38.0906 29.0566 40.3247 28.4182 43.1503 27.9887C43.6963 27.9056 44.0717 27.3957 43.9886 26.8497C43.9056 26.3037 43.3957 25.9284 42.8497 26.0114C39.8287 26.4707 37.3961 27.1657 35.5458 28.1091C35.0537 28.36 34.8583 28.9622 35.1091 29.4542C35.36 29.9463 35.9622 30.1418 36.4542 29.8909Z" fill="#FFC200"/>
<path d="M27.5457 37.8909C25.9093 37.0566 23.6752 36.4182 20.8496 35.9887C20.3036 35.9056 19.9283 35.3957 20.0113 34.8497C20.0943 34.3037 20.6042 33.9284 21.1502 34.0114C24.1712 34.4707 26.6038 35.1657 28.4542 36.1091C28.9462 36.36 29.1417 36.9622 28.8908 37.4542C28.6399 37.9463 28.0377 38.1418 27.5457 37.8909Z" fill="#FFC200"/>
<path d="M36.4542 37.8909C38.0906 37.0566 40.3247 36.4182 43.1503 35.9887C43.6963 35.9056 44.0717 35.3957 43.9886 34.8497C43.9056 34.3037 43.3957 33.9284 42.8497 34.0114C39.8287 34.4707 37.3961 35.1657 35.5458 36.1091C35.0537 36.36 34.8583 36.9622 35.1091 37.4542C35.36 37.9463 35.9622 38.1418 36.4542 37.8909Z" fill="#FFC200"/>
</svg>

<svg width="64" height="64" fill="none" xmlns="http://www.w3.org/2000/svg"><path fill-rule="evenodd" clip-rule="evenodd" d="M32 64c17.673 0 32-14.327 32-32C64 14.327 49.673 0 32 0 14.327 0 0 14.327 0 32c0 17.673 14.327 32 32 32Z" fill="#E6F0FC"/><path fill-rule="evenodd" clip-rule="evenodd" d="M12 18.667h40.444a2 2 0 0 1 2 2V52c-10.002-2.716-11.62-4.444-22.222-4.444-10.601 0-12.22 1.728-22.222 4.444V20.667a2 2 0 0 1 2-2Z" fill="#fff"/><path fill-rule="evenodd" clip-rule="evenodd" d="M54.444 21a2 2 0 0 0-2-2H12a2 2 0 0 0-2 2v-.333a2 2 0 0 1 2-2h40.444a2 2 0 0 1 2 2V21Zm0 28v3c-10.002-2.716-11.62-4.444-22.222-4.444-10.601 0-12.22 1.728-22.222 4.444v-3c10.002-2.444 11.62-4 22.222-4 10.602 0 12.22 1.556 22.222 4Z" fill="#52ABE2"/><path d="M44.125 47.874c-3.496-.933-6.744-1.318-11.903-1.318-5.159 0-8.407.385-11.902 1.318-.95.254-6.144 1.885-9.32 2.805V20.667a1 1 0 0 1 1-1h4.668v-2H12a3 3 0 0 0-3 3v32.64l1.262-.342c2.854-.775 9.538-2.882 10.574-3.158 3.318-.886 6.394-1.251 11.386-1.251 4.992 0 8.068.365 11.387 1.25 1.035.277 7.72 2.384 10.573 3.16l1.262.342V20.667a3 3 0 0 0-3-3H47.82v2h4.625a1 1 0 0 1 1 1v30.012c-3.176-.92-8.37-2.551-9.32-2.805Z" fill="#154E84"/><path fill-rule="evenodd" clip-rule="evenodd" d="M16.667 12c5.961 0 11.146 1.482 15.555 4.444C36.693 13.482 41.878 12 47.778 12v31.111c-5.88 0-11.065 1.482-15.556 4.445-4.446-2.963-9.63-4.445-15.555-4.445V12Z" fill="#fff"/><path fill-rule="evenodd" clip-rule="evenodd" d="M48.778 11h-1c-5.85 0-11.041 1.417-15.552 4.252C27.768 12.416 22.574 11 16.666 11h-1v33.111h1c5.733 0 10.725 1.426 15.002 4.277l.551.367.554-.365c4.323-2.852 9.316-4.279 15.005-4.279h1V11ZM17.667 38.25V13.014c5.347.157 10.006 1.578 13.997 4.26l.554.373.557-.369c4.05-2.684 8.71-4.105 14.003-4.263v29.11c-5.428.154-10.285 1.567-14.553 4.24-4.234-2.675-9.093-4.087-14.558-4.24V38.25Z" fill="#154E84"/><path d="M31.222 16.445v31.11h2v-31.11h-2Z" fill="#154E84"/><path d="M27.546 21.89c-1.637-.833-3.87-1.472-6.696-1.901a1 1 0 0 1 .3-1.978c3.021.46 5.454 1.155 7.304 2.098a1 1 0 0 1-.908 1.782ZM36.454 21.89c1.637-.833 3.87-1.472 6.696-1.901a1 1 0 0 0-.3-1.978c-3.021.46-5.454 1.155-7.304 2.098a1 1 0 0 0 .908 1.782ZM27.546 29.89c-1.637-.833-3.87-1.472-6.696-1.901a1 1 0 0 1 .3-1.978c3.021.46 5.454 1.155 7.304 2.098a1 1 0 0 1-.908 1.782ZM36.454 29.89c1.637-.833 3.87-1.472 6.696-1.901a1 1 0 0 0-.3-1.978c-3.021.46-5.454 1.155-7.304 2.098a1 1 0 0 0 .908 1.782ZM27.546 37.89c-1.637-.833-3.87-1.472-6.696-1.901a1 1 0 0 1 .3-1.978c3.021.46 5.454 1.155 7.304 2.098a1 1 0 0 1-.908 1.782ZM36.454 37.89c1.637-.833 3.87-1.472 6.696-1.901a1 1 0 0 0-.3-1.978c-3.021.46-5.454 1.155-7.304 2.098a1 1 0 0 0 .908 1.782Z" fill="#FFC200"/></svg>
